X:1
T:Salvator mundi
T:Palestrina
T:Salvator mundi
C:Palestrina
%%score [ 1 2 3 4 ]
L:1/8
Q:1/2=92
M:4/2
K:Ab
V:1 treble nm="SOPRANO" snm="S."
V:2 treble nm="ALTO" snm="A."
V:3 treble-8 transpose=-12 nm="TENOR" snm="T."
V:4 bass nm="BASS" snm="B."
V:1
"^Litany: \"intercede for us.\"" G16 | G8 G8 | A16 | G8 B8 | B4 B4 c8 | B8 c8 | B8 A8- | %7
w: Sal-|va- tor|mun-|di, sal-|va nos o-|mnes, sal-|va nos|
 A4 G2 F2 G4 F4- | F2 E2 E8 =D4 | E16 | z16 | z8 z4 A4- | A4 A4 B8 | c8 d6 c2 | B2 A2 B4 A6 G2 | %15
w: _ _ _ _ o-||mnes.||San-|* cta De-|i Ge- *||
 F4 F4 E8 | z16 | B8 c8 | A8 B4 A4- | A4 G2 F2 G8 | A8 z4 E4- | E4 E4 F4 G4 | A4 F4 G8- | G8 z8 | %24
w: * ni- trix,||in- ter-|ce- de pro|_ _ _ no-|bis, an-|* ge- li, arch-|an- ge- li,|_|
 z16 | z16 | z4 B8 B4 | c8 A4 A4 | B12 A4 | G4 F2 E2 F8 | G8 G8 | A8 F8 | G8 A4 F4- | F4 E4 F8- | %34
w: ||prin- ci-|pa- tus et|po- tes-|ta- * * *|tes, vir-|tu- tes|coe- lo- *|* * rum:|
 F16 | z4 B8 =A4 | B8 _A6 G2 | F4 =E4 F8- | F8 z8 | z8 c8 | A4 B8 G4 | A8 F4 B4- | B4 A4 G8 | %43
w: _|che- ru-|bim at- que|se- ra- phim,|_|pa-|tri- ar- chae|et pro- phe-||
 A6 _G2 F4 G4 | E8 F8 | z8 B8 | c8 d8- | d8 c6 B2 | A4 G2 F2 G4 A4 | F8 E8 | G8 A4 F4- | F4 E4 F8 | %52
w: |* tae,|san-|cti le-|* gis _|_ _ _ _ do-|cto- res,|san- cti le-|* gis do-|
 E16 | E8 z4 E4 | F6 G2 A4 B4- | B2 A2 A8 G4 | A8 z8 | z16 | G12 G4 | G4 G4 A8- | A4 A4 G8- | %61
w: cto|res, a-|po- * * *|* * * sto-|li,||o- mnes|Chri- sti mar-|* ty- res,|
 G8 z8 | z16 | z16 | z4 A8 G4 | F4 E4 D8 | C4 c8 c4 | c8 d8- | d4 c4 c8- | c8 z8 | z8 c8 | %71
w: _|||san- cti|con- fes- so-|res, vir- gi-|nes Do-|* mi- ni,|_|a-|
 B4 A4 G8 | F8 A8- | A4 A4 A8 | c12 B4 | A8 G8 | z4 B8 B4 | c6 B2 A4 G4 | F4 A8 G2 F2 | G8 A8 | %80
w: na- cho- ri-|tae, san-|* cti- que|o- *|* mnes,|in- ter-|ce- di- te pro|no- * * *|* bis,|
 z8 B8- | B4 B4 c6 B2 | A4 G4 F4 E4- | E4 =D2 C2 D8 | E16- | E16- | E16 |] %87
w: in-|* ter- ce- di-|te pro no- *||bis.|_||
V:2
 E16 | E8 E8 | F16 | E8 E8 | E4 E4 E8 | E16- | E8 z8 | E12 D4 | C8 B,6 A,2 | G,6 F,2 E,8 | z16 | %11
w: Sal-|va- tor|mun-|di, sal-|va nos o-|mnes,|_|sal- va|nos om- *|* * nes,||
 z16 | z16 | z8 z4 B,4- | B,4 B,4 C8 | =D8 E6 _D2 | C2 B,2 C4 D6 C2 | B,4 B,4 A,4 E4 | F8 D8 | %19
w: ||san-|* cta De-|i Ge- *||* ni- trix, in-|ter- ce-|
 E4 E4 E8 | C8 z4 C4- | C4 C4 D4 B,4 | C4 =D4 E8 | z4 E4 E4 E4 | F4 F4 _G4 F4- | F4 E8 =D4 | %26
w: de pro no-|bis, an-|* ge- li, arch-|an- ge- li,|thro- ni et|do- mi- na- ti-|* o- *|
 E8 z4 E4- | E4 E4 F8 | D4 D4 E4 F4- | F4 E6 =DC D4 | E16 | C8 D6 C2 | B,4 E,4 (A,8 | B,8) (C8 | %34
w: nes, prin-|* ci- pa-|tus et po- tes-|* ta- * * *|tes,|vir- tu- *|* tes coe-|* lo-|
 D8) C8 | z4 F8 F4 | F8 E6 D2 | C4 B,4 C8 | z16 | z8 z4 F4- | F4 D4 E8 | C4 D8 B,2 C2 | %42
w: * rum,|che- ru-|bim at- que|se- ra- phim,||pa-|* tri- ar-|chae et pro- *|
 D2 E2 F8 =E4 | F8 z8 | z16 | z16 | z8 z4 F4- | F4 G4 A4 G4 | F2 D2 F6 E2 E4- | (E4 =D4) E8- | %50
w: * * * phe-|tae,|||san-|* cti le- gis|do- * * * cto-|* * res,|
 E8 z8 | B,8 C4 D4 | B,4 C4 B,8 | C16 | z16 | z8 z4 B,4 | C6 =D2 E4 F4- | F2 E2 E8 =D4 | E4 E8 E4 | %59
w: _|san- cti le-|gis do- cto|res,||a-|po- * * *|* * * sto-|li, o- mnes|
 E4 E4 C8- | C4 =D4 E8 | z4 E8 _D4 | C4 B,4 D4 C4- | C4 B,4 C6 B,2 | A,8 z8 | z8 F8- | F4 F4 F8- | %67
w: Chri- sti mar-|* ty- res,|san- cti|con- fes- so- *|* * res, _|_|vir-|* gi- nes|
 F8 F8- | F4 E4 E8- | E8 z8 | z8 A8 | G4 F4 =E8 | F8 F8- | F4 F4 F8 | E4 A,2 B,2 C2 D2 E4- | %75
w: _ Do-|* mi- ni,|_|a-|na- cho- ri-|tae, san-|* cti- que|o- * * * * *|
 E4 =D4 E8- | E8 z4 E4- | E4 E4 F6 E2 | D4 C4 B,8- | B,8 A,8 | z8 D8 | B,8 E6 D2 | C4 B,4 A,6 G,2 | %83
w: * * mnes,|_ in-|* ter- ce- di-|te pro no-|* bis,|in-|ter- ce- di-|te pro no- *|
 F,16 | E,8 G,8 | A,4 B,4 C8 | B,16 |] %87
w: |bis, pro|no- * *|bis.|
V:3
 B16 | c8 B8 | d12 c4 | B8 G8 | G4 G4 A8 | G2 A2 B2 G2 A8 | z4 e8 d4 | c4 B2 A2 B6 A2 | G4 A4 F8 | %9
w: Sal-|va- tor|mun- *|di, sal-|va nos o-|mnes, _ _ _ _|sal- va|nos _ _ _ _|_ _ o-|
 E4 B8 B4 | c8 =d8 | e6 _d2 c2 B2 c4 | d4 c6 B2 B4- | B4 =A4 B6 _A2 | G2 F2 G4 F8 | B8 c8 | %16
w: mnes, san- cta|De- i|Ge- * * * *||* ni- trix, _|_ _ _ _|in- ter-|
 A8 B4 A4- | A4 G4 A4 c4- | c4 d6 c2 A4 | B16 | A16- | A8 z8 | z8 z4 B4 | B4 B4 c8 | c4 d8 c4 | %25
w: ce- de pro|_ no- bis, pro|_ no- * *||bis,|_|thro-|ni et do-|mi- na- ti-|
 B8 A8- | A4 =G2 F2 G8 | A8 z8 | z16 | z8 B8- | B8 c8 | A12 B4- | B4 c6 A2 d4- | d2 c2 B8 =A4 | %34
w: o- *||nes,||vir-|* tu-|tes coe-|* lo- * *||
 B8 F8 | d12 c4 | d8 c6 B2 | A4 G4 F8 | d8 c6 B2 | A4 G4 F8 | z16 | z16 | z8 z4 c4- | c4 A4 B8 | %44
w: * rum,|che- ru-|bim at- que|se- ra- phim,|se- * *|* ra- phim,|||pa-|* tri- ar-|
 =G4 A8 F4 | B2 A2 G2 F2 G2 E2 B4- | B4 =A4 B8 | B8 c8 | d8 c4 A4 | B8 E4 B4- | B4 c8 d4- | %51
w: chae et pro-|phe- * * * * * *|* * tae,|san- cti|le- gis do-|cto- res, san-|* cti le-|
 d2 c2 B4 A4 B4 | =G4 A8 G4 | A8 z4 A4 | d6 B2 c4 d4- | d2 c2 c2 BA B4 B4 | A8 z8 | z16 | B12 B4 | %59
w: * * * gis do-|cto- * *|res, a-|po- * * *|* * * * * * sto-|li,||o- mnes|
 c4 c4 A8- | A4 A4 B6 A2 | G4 F2 E2 F8 | E8 z8 | z8 z4 e4- | e4 d4 c4 B4 | d4 c4 B8- | %66
w: Chri- sti mar-|* ty- res, _|_ _ _ _||san-|* cti con- fes-|so- * *|
 B4 =A4 z4 _A4 | A4 A4 A8- | A4 A4 A8 | c8 B4 A4 | G8 F4 A4 | E4 F4 c8 | F8 d8- | d4 d4 d8 | %74
w: * res, vir-|gi- nes Do-|* mi- ni,|a- na- cho-|ri- tae, a-|na- cho- ri-|tae, san-|* cti- que|
 c4 e12 | A6 B2 c4 B4- | B2 A2 G2 F2 G8 | A8 z8 | z8 z4 e4- | e4 e4 d6 c2 | B4 A8 G2 F2 | G8 A8- | %82
w: o- *|||mnes,|in-|* ter- ce- di-|te pro _ _|_ no-|
 A4 B4 c8 | B8 z4 B4- | B4 B4 e6 d2 | c4 B4 A8 | G16 |] %87
w: |bis, in-|* ter- ce- di-|te pro no-|bis.|
V:4
 E,16 | C,8 E,8 | D,16 | E,8 E,8 | E,4 E,4 A,,8 | E,8 z4 A,4- | A,4 G,4 F,8 | E,8 B,,8 | %8
w: Sal-|va- tor|mun-|di, sal-|va nos o-|mnes, sal-|* va nos|o- *|
 C,4 A,,4 B,,8 | E,8 z4 E,4- | E,4 E,4 F,8 | G,8 A,6 G,2 | F,2 E,2 F,4 E,6 D,2 | C,4 C,4 B,,8 | %14
w: |mnes, san-|* cta De-|i Ge- *||* ni- trix,|
 z16 | z8 E,8 | F,8 D,8 | E,8 A,6 G,2 | F,2 E,2 D,2 C,2 B,,4 F,4 | E,16 | A,,16- | A,,8 z8 | %22
w: |in-|ter- ce-|de pro _|_ _ _ _ _ _|no-|bis,|_|
 z8 E,8 | E,4 E,4 A,8 | F,4 B,8 A,4 | _G,4 F,2 E,2 F,8 | E,16 | z16 | z16 | z16 | E,16 | F,8 D,8 | %32
w: thro-|ni et do-|mi- na- ti-|o- * * *|nes,||||vir-|tu- tes|
 E,8 F,8 | _G,8 F,8 | z4 B,8 =A,4 | B,8 F,8 | B,,8 z8 | z4 B,8 =A,4 | B,8 _A,6 G,2 | F,4 =E,4 F,8 | %40
w: coe- lo-|* rum,|che- ru-|bim at-|que,|che- ru-|bim at- que|se- ra- phim,|
 z16 | z16 | z16 | F,8 D,4 E,4- | E,4 C,4 D,8 | B,,4 E,8 D,4 | C,8 B,,8- | B,,8 z8 | z16 | %49
w: |||pa- tri- ar-|* chae et|pro- phe- *|* tae,|_||
 z8 E,8- | E,8 F,8 | _G,8 F,4 D,4 | E,16 | A,,16 | z16 | z8 E,8 | A,6 F,2 G,4 A,4- | %57
w: san-|* cti|le- gis do-|cto-|res,||a-|po- * * *|
 A,2 G,2 G,2 F,E, F,4 F,4 | E,4 E,8 E,4 | C,4 C,4 F,8- | F,4 F,4 E,8- | E,8 A,8- | %62
w: * * * * * * sto-|li o- mnes|Chri- sti mar-|* ty- res,|_ san-|
 A,4 G,4 F,4 E,4 | D,8 C,8 | F,8 E,8 | D,4 A,,4 B,,8 | F,4 F,8 F,4 | F,8 D,8- | D,4 A,,4 A,,8 | %69
w: * cti con- fes-|so- res,|san- cti|con- fes- so-|res, vir- gi-|nes Do-|* mi- ni,|
 A,8 G,4 F,4 | =E,8 F,8 | z16 | D,16 | D,8 D,8 | A,12 G,4 | F,8 E,8- | E,8 z8 | z16 | z8 E,8- | %79
w: a- na- cho-|ri- tae,||san-|cti- que|o- *|* mnes,|_||in-|
 E,4 E,4 F,6 E,2 | D,4 C,4 B,,8- | B,,8 A,,8- | A,,16 | B,,12 B,,4 | E,6 D,2 C,4 B,,4 | A,,16 | %86
w: * ter- ce- di-|te pro no-|* bis,|_|in- ter-|ce- di- te pro|no-|
 E,16 |] %87
w: bis.|

